korla/scalable/actions/scalable/fcitx-cangjie.svg

<svg xmlns="http://www.w3.org/2000/svg" width="16" height="16" version="1.1">
 <defs>
  <style id="current-color-scheme" type="text/css">
   .ColorScheme-Text { color:#5c616c; } .ColorScheme-Highlight { color:#5294e2; }
  </style>
 </defs>
 <path style="fill:currentColor" class="ColorScheme-Text" d="M 2,0 C 0.892,0 0,0.892 0,2.0000001 V 14 c 0,1.108 0.892,2 2,2 h 12 c 1.108,0 2,-0.892 2,-2 V 2.0000001 C 16,0.892 15.108,0 14,0 Z m 5.58398,1.7226562 h 0.83204 c 1.84354,2.7653191 5.64648,3.2812499 5.64648,3.2812499 l -0.125,0.992188 c 0,0 -0.83386,-0.123825 -1.9375,-0.535157 V 10 H 4.94531 c -0.0423,0.338961 -0.1137,0.673344 -0.2207,1 H 12 v 3 H 4.5 4 v -1.376953 c -0.0224,0.04001 -0.0441,0.08593 -0.0664,0.125 C 3.41325,13.658667 2.89063,14.3125 2.89063,14.3125 l -0.78124,-0.625 c -4e-5,0 0.47738,-0.596167 0.95703,-1.435547 C 3.54605,11.412573 4,10.333333 4,9.5 V 5.4609381 c -1.10364,0.411332 -1.9375,0.535156 -1.9375,0.535156 l -0.125,-0.992188 c 0,0 3.80294,-0.5159308 5.64648,-3.2812499 z M 8,2.7031251 c -0.85882,1.069604 -1.93347,1.798543 -2.93359,2.296875 h 2.53125 l -0.875,-0.5839844 0.55468,-0.8320312 1.5,1 L 8.5,5.0000001 h 2.43359 C 9.93347,4.5016681 8.85882,3.7727291 8,2.7031251 Z M 5,6 v 1 h 5 V 8 H 5 v 1 h 6 V 6 Z m 0,6 v 1 h 6 v -1 z"/>
</svg>

<svg xmlns="http://www.w3.org/2000/svg" width="16" height="16" version="1.1">
 <defs>
  <style id="current-color-scheme" type="text/css">
   .ColorScheme-Text { color:#444444; } .ColorScheme-Highlight { color:#5294e2; }
  </style>
 </defs>
 <path style="fill:currentColor" class="ColorScheme-Text" d="M 2,0 C 0.892,0 0,0.892 0,2 V 14 C 0,15.108 0.892,16 2,16 H 14 C 15.108,16 16,15.108 16,14 V 2 C 16,0.892 15.108,0 14,0 Z M 7.584,1.7227 H 8.416 C 10.26,4.488 14.063,5.0039 14.063,5.0039 L 13.938,5.9961 C 13.938,5.9961 13.104,5.8723 12,5.4609 V 10 H 4.9453 C 4.903,10.339 4.8316,10.673 4.7246,11 H 12 V 14 H 4 V 12.623 L 3.9336,12.748 C 3.4133,13.659 2.8906,14.313 2.8906,14.313 L 2.1094,13.688 C 2.1093,13.688 2.5868,13.091 3.0664,12.252 3.5461,11.413 4,10.333 4,9.5 V 5.4609 C 2.8964,5.8723 2.0625,5.9961 2.0625,5.9961 L 1.9375,5.0039 C 1.9375,5.0039 5.7404,4.488 7.584,1.7227 Z M 8,2.7031 C 7.1412,3.7727 6.0665,4.5017 5.0664,5 H 7.5977 L 6.7227,4.416 7.2773,3.584 8.7773,4.584 8.5,5 H 10.934 C 9.9335,4.5017 8.8588,3.7727 8,2.7031 Z M 5,6 V 7 H 10 V 8 H 5 V 9 H 11 V 6 Z M 5,12 V 13 H 11 V 12 Z"/>
</svg>
